X:1
T:Title
%%score { 1 | ( 2 3 ) }
L:1/8
M:4/4
K:Eb
V:1 treble nm="Grand Piano"
V:2 bass 
V:3 bass 
V:1
 z4 z2[Q:1/4=100] EF | G2 B4 cB | c2 e4 ec | B2 c4 [B,FA][B,FA] | [B,EG]2 [GB]4 [B,EG][B,EG] | %5
[M:3/4] [A,DF]2 [G,E]4 |] %6
V:2
 z4 z2 [E,G,][E,A,E] | [E,B,E]2 [E,G,E]4 [E,A,E][E,G,E] | [A,E]2 [A,CE]4 [A,CE][A,E] | %3
 [G,E]2- [C,G,E]4 D,D, | z2 D4 E,E, |[M:3/4] B,,2 E,4 |] %6
V:3
 x8 | x8 | x8 | E,2 z2 z4 | E,6 z2 |[M:3/4] x6 |] %6

